<?xml version="1.0" encoding="UTF-8"?>
<map version="1.10" tiledversion="1.11.2" orientation="orthogonal" renderorder="right-down" width="100" height="15" tilewidth="16" tileheight="16" infinite="0" nextlayerid="2" nextobjectid="1">
 <editorsettings>
  <export target="../tilemap/level02.csv" format="csv"/>
 </editorsettings>
 <tileset firstgid="1" source="blueskytileset02.tsx"/>
 <layer id="1" name="Tile Layer 1" width="100" height="15">
  <data encoding="csv">
11,11,11,11,11,11,11,11,11,11,11,11,11,11,11,11,11,11,11,11,11,11,11,11,11,11,11,11,11,11,11,11,11,11,11,11,11,11,11,11,11,11,11,11,11,11,11,11,11,11,11,11,11,11,11,11,11,11,11,11,11,11,11,11,11,11,11,11,11,11,11,11,11,11,11,11,11,11,11,11,11,11,11,11,11,11,11,11,11,11,11,11,11,11,11,11,11,11,11,11,
11,11,11,11,11,11,11,11,11,11,11,11,11,11,11,11,11,11,11,11,11,11,11,13,14,11,11,11,11,11,11,11,11,11,11,11,11,13,14,11,11,11,11,11,11,11,11,11,11,11,11,11,11,11,11,11,11,11,11,11,11,11,11,11,11,11,11,11,11,11,11,11,11,11,11,11,11,11,11,9,11,11,1,11,3,11,11,11,11,11,11,11,13,14,11,11,11,11,11,11,
11,11,11,11,11,11,11,11,11,11,11,15,11,11,11,11,11,11,11,11,11,11,11,9,11,11,11,11,11,11,11,11,11,11,11,11,11,11,11,15,11,11,11,11,11,11,15,11,11,11,11,11,11,11,11,11,11,13,14,11,11,11,11,11,11,11,3,11,11,11,13,14,11,11,11,11,11,11,11,11,11,11,5,12,7,11,11,11,11,11,13,14,11,11,11,11,11,11,11,15,
11,11,11,11,11,11,11,11,11,11,11,11,11,11,11,11,11,13,14,11,11,11,11,11,11,11,11,11,11,11,11,11,11,11,11,11,11,11,11,11,11,11,11,11,11,11,11,11,11,11,11,11,11,11,11,11,11,11,11,11,11,5,4,6,6,12,7,11,11,11,11,11,11,11,11,11,11,11,11,11,11,11,11,16,11,11,11,11,11,11,11,11,11,11,11,11,11,11,11,11,
11,13,14,11,11,11,11,11,11,11,11,11,11,11,11,11,11,11,11,11,11,11,11,11,11,11,11,11,11,11,11,11,11,11,11,11,11,11,11,11,11,11,11,11,11,11,11,11,11,11,11,11,11,11,11,11,11,11,11,11,11,11,8,11,11,16,11,13,14,11,11,11,11,11,11,11,11,11,11,11,11,11,11,16,11,11,9,11,11,11,11,11,11,11,11,11,11,11,11,11,
11,11,11,11,11,15,11,11,11,11,11,11,11,11,2,1,11,11,11,11,11,11,11,11,11,11,11,11,11,11,13,14,11,11,11,11,11,11,11,11,11,11,11,11,11,11,11,11,11,11,13,14,11,11,11,11,11,9,11,11,11,11,8,11,11,16,13,14,11,11,11,11,11,11,11,11,11,11,11,11,11,11,11,16,11,11,11,11,11,11,11,11,11,11,11,11,2,1,1,11,
11,11,11,11,11,11,11,11,11,11,11,11,11,1,5,7,11,11,11,11,11,11,11,11,11,11,11,11,11,11,11,11,11,11,11,11,11,11,11,11,11,11,11,11,11,11,11,11,11,11,11,11,11,11,11,11,11,11,11,11,11,11,8,11,11,16,11,11,11,11,11,11,11,11,11,11,11,11,11,11,11,11,11,16,11,11,11,11,11,11,11,11,11,13,14,5,12,6,6,4,
11,11,11,11,11,11,11,1,11,1,11,2,5,7,11,11,11,11,11,11,11,11,11,11,11,11,11,11,11,11,11,11,11,11,11,11,11,11,3,11,5,6,6,7,11,11,11,11,11,11,11,11,11,11,11,11,11,11,11,11,11,11,8,11,11,11,11,11,11,1,2,11,11,11,11,11,11,11,11,11,11,11,11,16,11,11,11,11,11,11,11,11,11,11,11,11,16,11,11,8,
11,11,11,11,11,11,11,5,12,12,12,7,11,11,11,11,11,11,11,11,11,11,11,1,1,3,11,1,11,11,11,11,11,11,5,4,12,12,6,7,11,11,11,11,11,11,11,1,1,1,11,11,11,11,11,11,11,11,11,11,2,11,8,11,11,11,11,11,11,5,7,11,11,11,11,11,11,11,11,11,11,11,11,16,11,11,11,11,11,11,11,11,11,11,11,11,11,11,11,8,
11,11,11,11,11,11,11,11,16,16,16,11,11,11,11,11,11,11,11,11,11,11,5,12,6,6,6,7,11,11,11,11,11,11,11,8,16,16,11,11,11,11,11,11,11,11,11,5,6,7,11,11,11,11,11,11,11,11,11,5,6,12,7,11,11,11,11,11,11,11,11,11,11,11,11,11,11,11,11,11,11,11,11,16,11,11,11,11,11,11,11,11,11,11,11,11,11,11,11,8,
11,2,1,1,11,11,11,11,16,11,11,11,11,11,11,11,11,11,11,11,11,11,11,16,11,11,11,11,11,11,11,11,11,11,11,8,11,16,11,11,11,11,11,11,11,11,11,11,11,11,11,11,11,11,11,11,11,11,11,11,11,16,11,11,11,11,11,11,11,11,11,11,11,11,11,11,11,11,1,1,11,11,11,16,11,11,11,11,11,11,1,2,11,11,11,11,11,11,11,8,
11,5,6,7,11,11,11,11,16,11,11,11,11,11,11,11,11,11,11,11,11,11,11,16,11,11,11,11,11,11,11,11,11,11,11,8,11,11,11,11,11,11,11,11,11,11,11,11,11,11,11,11,11,11,11,11,11,11,11,11,11,11,11,11,11,11,11,11,11,11,11,11,11,11,11,11,11,5,6,7,11,11,11,16,11,11,11,11,11,5,6,7,11,11,11,11,11,5,12,6,
11,11,11,11,11,11,11,11,11,11,11,11,11,11,11,11,11,11,11,11,11,11,11,11,11,11,11,11,11,11,11,5,6,6,6,6,6,7,11,11,11,11,11,11,11,11,11,11,11,11,11,11,11,11,11,11,11,11,11,11,11,11,11,11,11,11,11,11,11,11,11,11,11,11,11,11,11,11,11,11,11,11,11,16,11,11,11,11,11,11,11,11,11,11,11,11,11,11,16,11,
11,11,11,11,11,11,11,11,11,11,11,11,11,11,11,11,11,11,11,11,11,11,11,11,11,11,11,11,11,11,11,11,11,11,11,11,11,11,11,11,11,11,11,11,11,11,11,11,11,11,11,11,11,11,11,11,11,11,11,11,11,11,11,11,11,11,11,11,11,11,11,11,11,11,11,11,11,11,11,11,11,11,11,11,11,11,11,11,11,11,11,11,11,11,11,11,11,11,11,11,
10,10,10,10,10,10,10,10,10,10,10,10,10,10,10,10,10,10,10,10,10,10,10,10,10,10,10,10,10,10,10,10,10,10,10,10,10,10,10,10,10,10,10,10,10,10,10,10,10,10,10,10,10,10,10,10,10,10,10,10,10,10,10,10,10,10,10,10,10,10,10,10,10,10,10,10,10,10,10,10,10,10,10,10,10,10,10,10,10,10,10,10,10,10,10,10,10,10,10,10
</data>
 </layer>
</map>
